img/svg/btc.svg

<svg width="26" height="26" viewBox="0 0 26 26" fill="none" xmlns="http://www.w3.org/2000/svg">
<g clip-path="url(#clip0_85_2868)">
<path d="M25.6108 16.145C23.8743 23.1094 16.8198 27.3477 9.85382 25.611C2.89077 23.8748 -1.34807 16.8206 0.389131 9.8568C2.12481 2.89168 9.17936 -1.347 16.1432 0.389241C23.1086 2.12548 27.3472 9.18045 25.6106 16.1451L25.6107 16.145H25.6108Z" fill="#F7931A"/>
<path d="M18.733 11.1478C18.9918 9.41781 17.6745 8.48786 15.8733 7.86749L16.4576 5.52403L15.0309 5.16857L14.4621 7.45033C14.087 7.3568 13.7018 7.26866 13.319 7.18129L13.892 4.88447L12.4662 4.52901L11.8815 6.87171C11.5711 6.80105 11.2663 6.73122 10.9705 6.65763L10.9722 6.65026L9.00474 6.15901L8.62522 7.68264C8.62522 7.68264 9.68371 7.92525 9.6614 7.94018C10.2391 8.08436 10.3436 8.46676 10.3263 8.76986L9.66064 11.4396C9.70042 11.4497 9.75202 11.4643 9.80896 11.4872C9.76136 11.4754 9.71072 11.4625 9.65816 11.4499L8.72518 15.1898C8.65458 15.3654 8.47537 15.6287 8.07144 15.5287C8.08574 15.5494 7.0345 15.27 7.0345 15.27L6.32617 16.9029L8.18278 17.3657C8.52818 17.4523 8.86665 17.5429 9.19996 17.6281L8.60959 19.9984L10.0346 20.3539L10.6193 18.0087C11.0086 18.1144 11.3864 18.2119 11.7563 18.3038L11.1736 20.6379L12.6003 20.9933L13.1906 18.6274C15.6235 19.0878 17.4528 18.9022 18.2227 16.702C18.8432 14.9305 18.1918 13.9088 16.9119 13.2424C17.8442 13.0275 18.5463 12.4144 18.7335 11.148L18.7331 11.1477L18.733 11.1478ZM15.4734 15.7182C15.0325 17.4896 12.0495 16.5321 11.0824 16.2919L11.8659 13.1516C12.8329 13.393 15.9342 13.8708 15.4734 15.7182H15.4734ZM15.9146 11.1222C15.5124 12.7335 13.0297 11.9148 12.2243 11.7141L12.9346 8.86607C13.74 9.0668 16.3336 9.44145 15.9147 11.1222H15.9146Z" fill="white"/>
</g>
<defs>
<clipPath id="clip0_85_2868">
<rect width="26" height="26" fill="white"/>
</clipPath>
</defs>
</svg>

<svg width="26" height="26" viewBox="0 0 26 26" fill="none" xmlns="http://www.w3.org/2000/svg"><g clip-path="url(#clip0_85_2868)"><path d="M25.61 16.145c-1.736 6.964-8.79 11.203-15.756 9.466C2.89 23.875-1.348 16.821.389 9.857 2.125 2.892 9.18-1.347 16.143.389c6.966 1.736 11.204 8.791 9.468 15.756z" fill="#F7931A"/><path d="M18.733 11.148c.259-1.73-1.059-2.66-2.86-3.28l.585-2.344-1.427-.355-.569 2.281c-.375-.093-.76-.181-1.143-.269l.573-2.297-1.426-.355-.584 2.343c-.31-.07-.616-.14-.912-.214l.002-.008-1.967-.491-.38 1.524s1.059.242 1.036.257c.578.144.683.527.665.83l-.665 2.67c.04.01.091.024.148.047l-.15-.037-.934 3.74c-.07.175-.25.439-.654.339.015.02-1.036-.259-1.036-.259l-.709 1.633 1.857.463c.345.086.684.177 1.017.262l-.59 2.37 1.425.356.584-2.345c.39.105.767.203 1.137.295l-.582 2.334 1.426.355.59-2.366c2.434.46 4.263.275 5.033-1.925.62-1.772-.031-2.793-1.311-3.46.932-.215 1.634-.828 1.822-2.094h-.001zm-3.26 4.57c-.44 1.772-3.424.814-4.39.574l.783-3.14c.967.241 4.068.719 3.607 2.566zm.442-4.596c-.403 1.611-2.885.793-3.69.592l.71-2.848c.805.2 3.399.575 2.98 2.256z" fill="#fff"/></g><defs><clipPath id="clip0_85_2868"><path fill="#fff" d="M0 0h26v26H0z"/></clipPath></defs></svg>
